X:180
T:score259
L:1/8
Q:1/4=96
M:2/2
I:linebreak $
K:G
 A2 d2 | f4 (gfed) | (g2 d2 b2 g2) |$ e2 fg a2 f2 | ^d4 (B^cde) | (fgfe ^defg) |$ (abag fgab) | %7
 c'a b2 e2 f^d | e4 z4 |] %9
